projects/epgu-constructor/src/assets/icons/svg/male-child.svg

<svg width="26" height="24" viewBox="0 0 26 24" fill="none" xmlns="http://www.w3.org/2000/svg">
<path d="M8.55786 14.0117C8.00391 14.0117 7.55469 14.4608 7.55469 15.0149V16.1888C7.55469 16.7428 8.00391 17.192 8.55786 17.192C9.1118 17.192 9.56102 16.7428 9.56102 16.1888V15.0149C9.56102 14.4608 9.1118 14.0117 8.55786 14.0117Z" fill="#4D83FA"/>
<path d="M17.4712 16.1888V15.0149C17.4712 14.4608 17.022 14.0117 16.468 14.0117C15.9141 14.0117 15.4648 14.4608 15.4648 15.0149V16.1888C15.4648 16.7428 15.9141 17.192 16.468 17.192C17.022 17.192 17.4712 16.7428 17.4712 16.1888Z" fill="#4D83FA"/>
<path d="M23.7109 13.7846C24.0371 12.6818 24.2006 11.5286 24.1895 10.3526C24.1603 7.28953 22.8916 4.56804 20.6168 2.68941C18.4818 0.926139 15.5649 -0.0299801 12.4029 0.000716845C9.24961 0.0300093 6.366 1.02174 4.28312 2.79314C2.02851 4.71069 0.836843 7.36387 0.836843 10.466C0.836843 11.6019 1.00066 12.7162 1.31616 13.7834C0.497671 14.4497 0 15.4588 0 16.5453C0 18.5096 1.59805 20.1075 3.56235 20.1075C3.85317 20.1075 4.14238 20.071 4.42297 20.0013C4.99277 20.7455 5.66389 21.4135 6.41676 21.9762C8.18806 23.3002 10.2962 24 12.5133 24C14.73 24 16.8377 23.3004 18.6086 21.9769C19.3615 21.4141 20.0329 20.7459 20.6028 20.0015C20.8831 20.0711 21.1724 20.1075 21.4635 20.1075C23.4277 20.1075 25.0257 18.5095 25.0257 16.5453C25.0257 15.46 24.5285 14.4513 23.7109 13.7846ZM5.58283 4.32156C7.30848 2.85393 9.73715 2.03193 12.4214 2.00695C12.4629 2.00655 12.5037 2.00635 12.5449 2.00635C15.1863 2.00635 17.5953 2.79625 19.3392 4.23639C21.1761 5.75328 22.1594 7.87488 22.1831 10.3717C22.1945 11.5673 21.99 12.735 21.5833 13.8308C21.5408 13.7704 21.4966 13.7109 21.4506 13.6524C20.8325 12.8659 19.968 12.3489 18.9937 12.1743C18.4115 11.7215 16.488 10.0491 16.488 7.71829C16.488 7.16424 16.0387 6.71512 15.4848 6.71512C14.9308 6.71512 14.4816 7.16424 14.4816 7.71829C14.4816 9.21822 15.0097 10.4875 15.6587 11.4833C13.8988 10.9164 12.2501 10.0326 10.7915 8.86039L8.22949 6.66536C7.80886 6.30472 7.17536 6.35378 6.81502 6.77441C6.45448 7.19514 6.50344 7.82844 6.92417 8.18887L7.41181 8.60679C6.94924 8.83251 6.43462 9.13346 5.9217 9.53031C4.96016 10.2743 3.87654 11.4582 3.25347 13.2642C2.98242 12.3652 2.84328 11.4248 2.84328 10.466C2.84318 7.97058 3.79057 5.84588 5.58283 4.32156ZM2.00634 16.5453C2.00634 16.3067 2.06171 16.077 2.16143 15.8701C2.36246 16.2539 2.58587 16.6278 2.83084 16.9905C2.95182 17.3584 3.09417 17.7192 3.25698 18.0708C2.54474 17.9284 2.00634 17.2987 2.00634 16.5453ZM17.4074 20.3699C15.986 21.4323 14.2936 21.9939 12.5133 21.9939C10.7325 21.9939 9.03975 21.4321 7.61786 20.3693C6.28344 19.3719 5.26904 17.9641 4.74619 16.3933C4.81651 11.8692 7.96686 10.4393 9.11749 10.0685L9.49779 10.3943C9.50552 10.401 9.51334 10.4075 9.52127 10.4139C12.0987 12.4894 15.2004 13.7733 18.4909 14.1269C19.0405 14.1859 19.5314 14.4579 19.873 14.8925C20.1991 15.3075 20.3465 15.8196 20.2963 16.3419C19.779 17.9337 18.7566 19.3615 17.4074 20.3699ZM21.7685 18.0708C21.931 17.7199 22.073 17.3599 22.1937 16.9928C22.4393 16.6296 22.6633 16.2554 22.8646 15.8712C22.9641 16.0779 23.0193 16.3073 23.0193 16.5453C23.0194 17.2988 22.4809 17.9285 21.7685 18.0708Z" fill="#4D83FA"/>
<path d="M14.023 18.4587C13.1893 19.2923 11.8329 19.2923 10.9992 18.4587C10.7054 18.1648 10.229 18.1649 9.9352 18.4587C9.64137 18.7525 9.64137 19.2289 9.9353 19.5227C10.6454 20.2328 11.5783 20.5879 12.5111 20.5879C13.444 20.5879 14.3768 20.2328 15.087 19.5227C15.3809 19.2288 15.3809 18.7525 15.0871 18.4587C14.7932 18.1649 14.3167 18.1649 14.023 18.4587Z" fill="#4D83FA"/>
</svg>

<svg width="26" height="24" fill="none" xmlns="http://www.w3.org/2000/svg"><path d="M23.71 13.785c.327-1.103.49-2.256.48-3.432-.03-3.063-1.298-5.785-3.573-7.664C18.482.926 15.565-.03 12.403.001 9.25.03 6.366 1.02 4.283 2.793 2.03 4.711.837 7.363.837 10.466c0 1.136.164 2.25.48 3.317A3.565 3.565 0 000 16.545a3.566 3.566 0 004.423 3.456c.57.744 1.24 1.412 1.994 1.975A10.108 10.108 0 0012.513 24c2.217 0 4.325-.7 6.096-2.023A10.236 10.236 0 0020.603 20c.28.07.57.107.86.107a3.566 3.566 0 003.563-3.563 3.567 3.567 0 00-1.315-2.76zM5.584 4.322c1.725-1.468 4.154-2.29 6.838-2.315h.124c2.641 0 5.05.79 6.794 2.23 1.837 1.516 2.82 3.638 2.844 6.135a9.657 9.657 0 01-.6 3.459 4.004 4.004 0 00-2.59-1.656c-.582-.453-2.505-2.126-2.505-4.457a1.003 1.003 0 00-2.006 0c0 1.5.528 2.77 1.177 3.765A15.205 15.205 0 0110.79 8.86L8.23 6.665A1.003 1.003 0 106.924 8.19l.488.418a8.608 8.608 0 00-1.49.923 7.94 7.94 0 00-2.669 3.734 9.681 9.681 0 01-.41-2.798c0-2.495.948-4.62 2.74-6.144zM2.006 16.545c0-.238.056-.468.155-.675.201.384.425.758.67 1.12.12.368.263.73.426 1.08a1.558 1.558 0 01-1.25-1.525zm15.401 3.825a8.114 8.114 0 01-4.894 1.624 8.116 8.116 0 01-4.895-1.625 8.256 8.256 0 01-2.872-3.976c.07-4.524 3.22-5.954 4.371-6.325l.38.326a17.205 17.205 0 008.993 3.733c.55.059 1.041.33 1.383.766.326.414.473.927.423 1.449a8.252 8.252 0 01-2.889 4.028zm4.361-2.3c.163-.35.305-.71.426-1.077.245-.363.47-.738.67-1.122a1.553 1.553 0 01-1.096 2.2z" fill="#4D83FA"/></svg>
